app/assets/images/icon-heart.svg

<svg width="88" height="80" viewBox="0 0 88 80" fill="none" xmlns="http://www.w3.org/2000/svg">
<path d="M54.9829 18.5542C54.2419 18.4609 53.4918 18.413 52.7515 18.413C46.2767 18.413 41.2706 21.8752 37.931 25.2442C34.7203 18.6953 29.7005 14.4891 23.6549 13.3284C22.7149 13.1481 21.744 13.0562 20.7665 13.0562C13.4959 13.0562 5.62171 18.2678 2.04316 25.4492C-1.56629 32.6949 -0.389771 40.6013 5.54393 48.9475C11.5174 57.3513 18.9722 64.6622 26.1821 71.7334L27.6682 73.1916C28.2332 74.2631 29.3078 74.9429 30.4679 74.9437C30.9494 74.9437 31.4251 74.828 31.8812 74.6L34.4872 73.3057C43.5334 68.8148 52.8871 64.1723 61.1708 58.031C69.3971 51.9335 72.9657 44.7812 71.7769 36.7727C70.5805 28.7064 63.9717 19.6858 54.9829 18.5542Z" fill="#FFBA02"/>
<path d="M62.9829 10.5542C62.2419 10.4609 61.4918 10.413 60.7515 10.413C54.2767 10.413 49.2706 13.8752 45.931 17.2442C42.7203 10.6953 37.7005 6.48908 31.6549 5.32839C30.7149 5.1481 29.744 5.05615 28.7665 5.05615C21.4959 5.05615 13.6217 10.2678 10.0432 17.4492C6.43371 24.6949 7.61023 32.6013 13.5439 40.9475C19.5174 49.3513 26.9722 56.6622 34.1821 63.7334L35.6682 65.1916C36.2332 66.2631 37.3078 66.9429 38.4679 66.9437C38.9494 66.9437 39.4251 66.828 39.8812 66.6L42.4872 65.3057C51.5334 60.8148 60.8871 56.1723 69.1708 50.031C77.3971 43.9335 80.9657 36.7812 79.7769 28.7727C78.5805 20.7064 71.9717 11.6858 62.9829 10.5542ZM73.9097 33.259C73.6165 40.1094 65.9284 45.0236 60.842 48.2767C53.9086 52.7087 46.4583 56.4495 39.2227 60.0532C33.3535 54.2841 27.3073 48.3167 22.0076 41.8585C18.1781 37.1915 12.39 30.1387 14.233 23.5336C15.8977 17.5678 22.0509 11.1813 28.5557 11.1813C28.9736 11.1813 29.3936 11.2089 29.8046 11.2621C37.3291 12.2442 40.607 19.7234 41.7272 23.1614C41.6787 23.8533 41.8995 24.5308 42.366 25.0977C42.9845 25.85 43.9444 26.2998 44.9337 26.2998C45.961 26.2998 46.8918 25.803 47.4889 24.9362C49.2218 22.421 53.9821 16.5687 60.7541 16.5687C61.4682 16.5687 62.1916 16.6361 62.9043 16.7704C69.5535 18.0138 74.1982 26.5018 73.9097 33.259Z" fill="black"/>
</svg>

<svg width="80" height="75" fill="none" xmlns="http://www.w3.org/2000/svg"><path d="M54.983 18.554a17.922 17.922 0 00-2.232-.141c-6.474 0-11.48 3.462-14.82 6.831-3.21-6.549-8.23-10.755-14.276-11.916-.94-.18-1.911-.272-2.889-.272-7.27 0-15.144 5.212-18.723 12.393-3.61 7.246-2.433 15.152 3.5 23.498 5.974 8.404 13.43 15.715 20.639 22.786l1.486 1.459c.565 1.071 1.64 1.75 2.8 1.752.481 0 .957-.116 1.413-.344l2.606-1.294c9.046-4.491 18.4-9.134 26.684-15.275 8.226-6.097 11.795-13.25 10.606-21.258-1.197-8.067-7.806-17.087-16.794-18.219z" fill="#FFBA02"/><path d="M62.983 10.554a17.922 17.922 0 00-2.232-.141c-6.474 0-11.48 3.462-14.82 6.831C42.72 10.695 37.7 6.49 31.655 5.328c-.94-.18-1.911-.272-2.889-.272-7.27 0-15.144 5.212-18.723 12.393-3.61 7.246-2.433 15.152 3.5 23.498 5.974 8.404 13.43 15.715 20.639 22.786l1.486 1.459c.565 1.071 1.64 1.75 2.8 1.752.481 0 .957-.116 1.413-.344l2.606-1.294c9.046-4.491 18.4-9.134 26.684-15.275 8.226-6.097 11.795-13.25 10.606-21.258-1.197-8.067-7.805-17.087-16.794-18.219zM73.91 33.26c-.294 6.85-7.982 11.765-13.068 15.018-6.934 4.432-14.384 8.172-21.62 11.776-5.869-5.769-11.915-11.736-17.215-18.194-3.829-4.668-9.617-11.72-7.774-18.325 1.665-5.966 7.818-12.353 14.323-12.353.418 0 .837.028 1.248.081 7.525.982 10.803 8.461 11.923 11.9-.048.691.172 1.369.639 1.936a3.352 3.352 0 002.568 1.202c1.027 0 1.958-.497 2.555-1.364 1.733-2.515 6.493-8.367 13.265-8.367.714 0 1.437.067 2.15.201 6.65 1.244 11.294 9.732 11.006 16.489z" fill="#000"/></svg>
